svgs/light/fire-hydrant.svg

<svg xmlns="http://www.w3.org/2000/svg" viewBox="0 0 384 512"><!--! Font Awesome Pro 6.6.0 by @fontawesome - https://fontawesome.com License - https://fontawesome.com/license (Commercial License) Copyright 2024 Fonticons, Inc. --><path d="M192 0c8.8 0 16 7.2 16 16l0 17c57.9 7.2 103.8 53.1 111 111l17 0c8.8 0 16 7.2 16 16s-7.2 16-16 16L48 176c-8.8 0-16-7.2-16-16s7.2-16 16-16l17 0C72.2 86.1 118.1 40.2 176 33l0-17c0-8.8 7.2-16 16-16zm0 64c-47.6 0-87.1 34.6-94.7 80l189.3 0c-7.6-45.4-47.1-80-94.7-80zM32 496c0-8.8 7.2-16 16-16l16 0 0-80-16 0c-26.5 0-48-21.5-48-48l0-64c0-26.5 21.5-48 48-48l16 0 0-32 32 0 0 48 0 128 0 96 192 0 0-96 0-128 0-48 32 0 0 32 16 0c26.5 0 48 21.5 48 48l0 64c0 26.5-21.5 48-48 48l-16 0 0 80 16 0c8.8 0 16 7.2 16 16s-7.2 16-16 16l-32 0L80 512l-32 0c-8.8 0-16-7.2-16-16zM320 368l16 0c8.8 0 16-7.2 16-16l0-64c0-8.8-7.2-16-16-16l-16 0 0 96zM64 368l0-96-16 0c-8.8 0-16 7.2-16 16l0 64c0 8.8 7.2 16 16 16l16 0zm160-48a32 32 0 1 0 -64 0 32 32 0 1 0 64 0zm-96 0a64 64 0 1 1 128 0 64 64 0 1 1 -128 0z"/></svg>

<svg xmlns="http://www.w3.org/2000/svg" viewBox="0 0 384 512"><!--! Font Awesome Pro 6.4.0 by @fontawesome - https://fontawesome.com License - https://fontawesome.com/license (Commercial License) Copyright 2023 Fonticons, Inc. --><path d="M192 0c8.8 0 16 7.2 16 16V33c57.9 7.2 103.8 53.1 111 111h17c8.8 0 16 7.2 16 16s-7.2 16-16 16H48c-8.8 0-16-7.2-16-16s7.2-16 16-16H65C72.2 86.1 118.1 40.2 176 33V16c0-8.8 7.2-16 16-16zm0 64c-47.6 0-87.1 34.6-94.7 80H286.7c-7.6-45.4-47.1-80-94.7-80zM32 496c0-8.8 7.2-16 16-16H64V400H48c-26.5 0-48-21.5-48-48V288c0-26.5 21.5-48 48-48H64V208H96v48V384v96H288V384 256 208h32v32h16c26.5 0 48 21.5 48 48v64c0 26.5-21.5 48-48 48H320v80h16c8.8 0 16 7.2 16 16s-7.2 16-16 16H304 80 48c-8.8 0-16-7.2-16-16zM320 368h16c8.8 0 16-7.2 16-16V288c0-8.8-7.2-16-16-16H320v96zM64 368V272H48c-8.8 0-16 7.2-16 16v64c0 8.8 7.2 16 16 16H64zm160-48a32 32 0 1 0 -64 0 32 32 0 1 0 64 0zm-96 0a64 64 0 1 1 128 0 64 64 0 1 1 -128 0z"/></svg>
